icons/16/comment.svg

<svg width="16" height="16" viewBox="0 0 16 16" xmlns="http://www.w3.org/2000/svg">
  <path fill-rule="evenodd" clip-rule="evenodd" d="M2.75 2.5C2.6837 2.5 2.62011 2.52634 2.57322 2.57322C2.52634 2.62011 2.5 2.6837 2.5 2.75V10.25C2.5 10.388 2.612 10.5 2.75 10.5H4.75C4.94891 10.5 5.13968 10.579 5.28033 10.7197C5.42098 10.8603 5.5 11.0511 5.5 11.25V13.44L8.22 10.72C8.36052 10.5793 8.55115 10.5002 8.75 10.5H13.25C13.3163 10.5 13.3799 10.4737 13.4268 10.4268C13.4737 10.3799 13.5 10.3163 13.5 10.25V2.75C13.5 2.6837 13.4737 2.62011 13.4268 2.57322C13.3799 2.52634 13.3163 2.5 13.25 2.5H2.75ZM1 2.75C1 1.784 1.784 1 2.75 1H13.25C14.216 1 15 1.784 15 2.75V10.25C15 10.7141 14.8156 11.1592 14.4874 11.4874C14.1592 11.8156 13.7141 12 13.25 12H9.06L6.487 14.573C6.28324 14.7767 6.02367 14.9153 5.74111 14.9715C5.45854 15.0277 5.16567 14.9988 4.8995 14.8886C4.63333 14.7784 4.40581 14.5917 4.24571 14.3522C4.08561 14.1127 4.0001 13.8311 4 13.543V12H2.75C2.28587 12 1.84075 11.8156 1.51256 11.4874C1.18437 11.1592 1 10.7141 1 10.25V2.75Z"/>
</svg>

<svg width="16" height="16" viewBox="0 0 16 16" xmlns="http://www.w3.org/2000/svg">
  <path fill-rule="evenodd" clip-rule="evenodd" d="M2.75 2.5a.25.25 0 00-.25.25v7.5c0 .138.112.25.25.25h2a.75.75 0 01.75.75v2.19l2.72-2.72a.75.75 0 01.53-.22h4.5a.25.25 0 00.25-.25v-7.5a.25.25 0 00-.25-.25H2.75zM1 2.75C1 1.784 1.784 1 2.75 1h10.5c.966 0 1.75.784 1.75 1.75v7.5A1.75 1.75 0 0113.25 12H9.06l-2.573 2.573A1.457 1.457 0 014 13.543V12H2.75A1.75 1.75 0 011 10.25v-7.5z"/>
</svg>
